X: 21271
M: 2/4
L: 1/16
K: D
V: 1 name="4"
(3(def) A2 (3(def) A2 | d>cd>e f2d2 | e2fg c2de | e>dc>d A2Bc |\
(3(def) A2 (3(def) A2 | d>cd>e f2g>f | (3(efg) e>d (3(cde) d>c | d2f2d2 H|]
e4 b3a | ad'f2 fad2 | egce A2Bc | dcdf a2gf |\
e4 b3a | ad'f2 f2ad | egce A2Bc | d4 "^D.C."z2 |]


